Papirus/22x22/apps/k4dirstat.svg

<svg xmlns="http://www.w3.org/2000/svg" width="22" height="22" version="1">
 <rect fill="#c6ae91" width="20" height="20" x="-21" y="-21" rx="10" ry="10" transform="matrix(0,-1,-1,0,0,0)"/>
 <path fill="#fff" d="m11 3c-4.432 0-8 3.568-8 8s3.568 8 8 8v-2a6 6 0 0 1 -6 -6 6 6 0 0 1 6 -6v-2z"/>
 <path opacity=".2" d="m1.0058 11.25c-0.002 0.084-0.0058 0.166-0.0058 0.25 0 5.54 4.46 10 10 10s10-4.46 10-10c0-0.084-0.004-0.1665-0.006-0.25-0.132 5.423-4.538 9.75-9.994 9.75s-9.862-4.327-9.994-9.75z"/>
 <path fill="#fff" opacity=".5" d="m11 3v2a6 6 0 0 1 6 6 6 6 0 0 1 -6 6v2c4.432 0 8-3.568 8-8s-3.568-8-8-8z"/>
 <path fill="#fff" d="m15 11c0 2.2092-1.7908 4-4 4s-4-1.7908-4-4z"/>
 <path fill="#fff" opacity=".5" d="m15 11c0-2.2092-1.791-4-4-4-2.2092 0-4 1.7908-4 4z"/>
 <path fill="#fff" opacity=".2" d="m11 1c-5.54 0-10 4.46-10 10 0 0.084 0.0097 0.166 0.0117 0.25 0.1331-5.4224 4.5327-9.75 9.9883-9.75 5.456 0 9.855 4.3276 9.988 9.75 0.002-0.084 0.012-0.166 0.012-0.25 0-5.54-4.46-10-10-10z"/>
</svg>

<svg xmlns="http://www.w3.org/2000/svg" width="22" height="22" version="1">
 <rect style="fill:#ba9e7b" width="20" height="20" x="-21" y="-21" rx="10" ry="10" transform="matrix(0,-1,-1,0,0,0)"/>
 <path style="opacity:0.2" d="m 11,3.5 c -4.432,0 -8,3.568 -8,8 0,4.432 3.568,8 8,8 l 0,-2 a 6,6 0 0 1 -6,-6 6,6 0 0 1 6,-6 l 0,-2 z"/>
 <path style="fill:#ffffff" d="m 11,3 c -4.432,0 -8,3.568 -8,8 0,4.432 3.568,8 8,8 l 0,-2 A 6,6 0 0 1 5,11 6,6 0 0 1 11,5 l 0,-2 z"/>
 <path style="opacity:0.2" d="M 1.0058,11.25 C 1.0038,11.334 1,11.416 1,11.5 c 0,5.54 4.46,10 10,10 5.54,0 10,-4.46 10,-10 0,-0.084 -0.004,-0.1665 -0.006,-0.25 C 20.862,16.673 16.456,21 11,21 5.544,21 1.138,16.673 1.006,11.25 Z"/>
 <path style="opacity:0.5;fill:#ffffff" d="m 11,3 0,2 a 6,6 0 0 1 6,6 6,6 0 0 1 -6,6 l 0,2 c 4.432,0 8,-3.568 8,-8 0,-4.432 -3.568,-8 -8,-8 z"/>
 <path style="opacity:0.2" d="m 15,11.5 c 0,2.2092 -1.7908,4 -4,4 -2.2092,0 -4,-1.7908 -4,-4 z"/>
 <path style="fill:#ffffff" d="m 15,11 c 0,2.2092 -1.7908,4 -4,4 -2.2092,0 -4,-1.7908 -4,-4 z"/>
 <path style="opacity:0.5;fill:#ffffff" d="M 15,11 C 15,8.7908 13.209,7 11,7 8.7908,7 7,8.7908 7,11 Z"/>
 <path style="opacity:0.2;fill:#ffffff" d="M 11,1 C 5.46,1 1,5.46 1,11 1,11.084 1.0097,11.166 1.0117,11.25 1.1448,5.8276 5.5444,1.5 11,1.5 c 5.4556,0 9.8552,4.3276 9.9883,9.75 0.002,-0.084 0.012,-0.166 0.012,-0.25 0,-5.54 -4.46,-10 -10,-10 z"/>
</svg>
